img/logo.svg

<svg width="298" height="28" xmlns="http://www.w3.org/2000/svg">
 <defs>
  <clipPath id="clip0_2012_2">
   <rect id="svg_1" fill="white" height="28" width="316"/>
  </clipPath>
 </defs>
 <g>
  <title>background</title>
  <rect fill="none" id="canvas_background" height="30" width="300" y="-1" x="-1"/>
 </g>
 <g>
  <title>Layer 1</title>
  <g stroke="null" id="svg_2" clip-path="url(#clip0_2012_2)">
   <path stroke="null" id="svg_3" fill="white" d="m78.4685,0.38618l0,24.62072l20.5835,0l15.172,-24.52417c0.483,-0.3862 3.285,0 4.059,-0.09655l7.054,11.39312c2.223,0.0965 4.445,0.1931 6.571,0.5793l-0.773,2.4138c-1.353,-0.1931 -2.802,-0.4828 -4.155,-0.2897l8.214,13.4207l-3.189,0c-0.29,-0.1931 -0.483,-0.5793 -0.677,-0.8689c-2.512,-3.669 -4.638,-7.8207 -7.151,-11.5862c-0.193,-0.2897 -0.483,-0.9656 -0.773,-0.9656c-6.281,0.6759 -12.273,2.8 -17.298,6.5656c-0.676,0.5793 -2.029,1.5448 -2.512,2.2206c-0.58,0.6759 -2.513,4.3449 -2.899,4.4414c-1.2565,0.1931 -2.6094,-0.0965 -3.769,-0.0965c-7.1511,-0.0966 -14.3988,0 -21.5499,0.0965l0,-27.32412l3.0924,0zm38.2675,2.99311l-0.676,0l-8.601,13.90341l3.093,-1.7379c3.575,-1.7379 7.537,-2.8965 11.499,-3.2828l-5.315,-8.88271z"/>
   <path stroke="null" id="svg_4" fill="white" d="m222.456,27.8069l3.576,-27.5172l2.706,0.09656l13.529,22.78624l0.386,0.3862l13.239,-23.17245l2.899,-0.09655l3.479,27.5172l-2.802,0l-2.899,-21.82065l-0.387,0.19311l-12.562,21.24134l-2.223,0.0966l-12.949,-21.14484l-0.387,-0.28965l-2.899,21.82069l-2.706,0l0,-0.0966z"/>
   <path stroke="null" id="svg_5" fill="white" d="m191.146,0.38623l0,2.70345l-22.516,0l-0.193,0.1931l0,7.72412l22.709,0l0,2.7035l-22.516,0l-0.193,0.1931l0,11.1034l22.709,0l0,2.8966l-25.608,0l-0.194,-0.1931l0,-27.32417l25.802,0z"/>
   <path stroke="null" id="svg_6" fill="white" d="m293.774,0.38623l0,2.70345l-22.71,0l0,7.91722l22.71,0l0,2.7035l-22.71,0l0,11.2965l22.71,0l0,2.8966l-25.802,0l0,-27.51727l25.802,0z"/>
   <path stroke="null" id="svg_7" fill="white" d="m25.8018,0.38623l0,2.70345l-22.61281,0l0,7.91722l22.70951,0l0,2.7035l-22.70951,0l0,11.2965l22.70951,0l0,2.7035l-0.1933,0.1931l-25.7052,0l0,-27.51727l25.8018,0z"/>
   <path stroke="null" id="svg_8" fill="white" d="m34.209,18.1517l0,9.4621l-0.1933,0.1931l-2.8024,0l0,-24.91039c5.2183,-3.18621 12.7559,-3.57241 18.6507,-2.12414c4.7352,1.15862 9.6636,4.15173 9.0838,9.65513c-0.4832,5.5035 -8.1174,8.4 -13.0459,8.6897c-3.8654,0.1931 -8.1174,0 -11.6929,-0.9655zm0,-2.9931c1.3529,0.3862 2.7058,0.6758 4.0587,0.8689c4.6385,0.4828 14.6887,0.5794 17.2979,-4.3448c2.4159,-4.63446 -3.3823,-7.33791 -6.9578,-8.11033c-4.4453,-0.96551 -10.1468,-0.67586 -14.3988,1.15862l0,10.42761z"/>
   <path stroke="null" id="svg_9" fill="white" d="m160.513,0.38623l0,2.70345l-13.24,0l0,24.62072l-0.193,0.1931l-2.899,0l-0.193,-0.1931l0,-24.62072l-13.239,0l0,-2.70345l29.764,0z"/>
   <path stroke="null" id="svg_10" fill="white" d="m67.1619,0.38623l0,27.32417l-0.1933,0.1931l-2.8991,0l0,-27.51727l3.0924,0z"/>
   <path stroke="null" id="svg_11" fill="white" d="m212.889,12.5517l0,2.7035l-8.31,0l-0.194,-0.1931l0,-2.5104l8.504,0z"/>
  </g>
 </g>
</svg>

<svg width="294" height="28" viewBox="0 0 294 28" fill="none" xmlns="http://www.w3.org/2000/svg">
<path d="M78.4685 0.419655V25.0403H99.052L114.224 0.516206C114.707 0.129999 117.509 0.516206 118.283 0.419655L125.337 11.8128C127.56 11.9093 129.782 12.0059 131.908 12.3921L131.135 14.8059C129.782 14.6128 128.333 14.3231 126.98 14.5162L135.194 27.9369H132.005C131.715 27.7438 131.522 27.3576 131.328 27.0679C128.816 23.399 126.69 19.2472 124.177 15.4817C123.984 15.1921 123.694 14.5162 123.404 14.5162C117.123 15.1921 111.131 17.3162 106.106 21.0817C105.43 21.661 104.077 22.6266 103.594 23.3024C103.014 23.9783 101.081 27.6472 100.695 27.7438C99.4385 27.9369 98.0856 27.6472 96.926 27.6472C89.7749 27.5507 82.5272 27.6472 75.3761 27.7438V0.419655H78.4685ZM116.736 3.41276H116.06L107.459 17.3162L110.552 15.5783C114.127 13.8403 118.089 12.6817 122.051 12.2955L116.736 3.41276Z" fill="white"/>
<path d="M222.456 27.8404L226.032 0.323175L228.738 0.419727L242.267 23.2059L242.653 23.5921L255.892 0.419727L258.791 0.323175L262.27 27.8404H259.468L256.569 6.01973L256.182 6.21283L243.62 27.4542L241.397 27.5508L228.448 6.40593L228.061 6.11628L225.162 27.937H222.456V27.8404Z" fill="white"/>
<path d="M191.146 0.419703V3.12315H168.63L168.437 3.31625V11.0404H191.146V13.7438H168.63L168.437 13.9369V25.0404H191.146V27.9369H165.538L165.344 27.7438V0.419703H191.146Z" fill="white"/>
<path d="M293.774 0.419703V3.12315H271.064V11.0404H293.774V13.7438H271.064V25.0404H293.774V27.9369H267.972V0.419703H293.774Z" fill="white"/>
<path d="M25.8018 0.419703V3.12315H3.18899V11.0404H25.8985V13.7438H3.18899V25.0404H25.8985V27.7438L25.7052 27.9369H0V0.419703H25.8018Z" fill="white"/>
<path d="M34.209 18.1852V27.6472L34.0157 27.8403H31.2133V2.92998C36.4316 -0.256223 43.9692 -0.64243 49.864 0.805846C54.5992 1.96447 59.5276 4.95757 58.9478 10.461C58.4646 15.9645 50.8304 18.861 45.9019 19.1507C42.0365 19.3438 37.7845 19.1507 34.209 18.1852ZM34.209 15.1921C35.5619 15.5783 36.9148 15.8679 38.2677 16.061C42.9062 16.5438 52.9564 16.6403 55.5656 11.7162C57.9815 7.08171 52.1833 4.37826 48.6078 3.60585C44.1625 2.64033 38.461 2.92998 34.209 4.76447V15.1921Z" fill="white"/>
<path d="M160.513 0.419703V3.12315H147.273V27.7438L147.08 27.9369H144.181L143.988 27.7438V3.12315H130.749V0.419703H160.513Z" fill="white"/>
<path d="M67.1619 0.419703V27.7438L66.9686 27.9369H64.0695V0.419703H67.1619Z" fill="white"/>
<path d="M212.889 12.5852V15.2886H204.579L204.385 15.0955V12.5852H212.889Z" fill="white"/>
</svg>
